X:1
T:Our Best
T:Our Best
T:Grant Colfax Tullar
T:Salathial Cleaver Kirk, 1912
T:Public Domain Courtesy of the Cyber Hymnal™
T:Public Domain Courtesy of the Cyber Hymnal™
C:Grant Colfax Tullar
Z:Public Domain
Z:Courtesy of the Cyber Hymnal™
%%score ( 1 2 ) ( 3 4 )
L:1/8
Q:1/4=112
M:4/4
K:Bb
V:1 treble 
V:2 treble 
V:3 bass 
V:4 bass 
V:1
 [DF]4 [^C=E]2 [=C_E]2 | [B,D]2 [DF]2 [DB]4 | [EB]4 [FA]2 [EG]2 x | [DF]8 | [EF]4 [EA]2 [EG]2 | %5
w: 1.~Hear ye the|Mas- ter’s call,|“Give Me thy|best!”|For, be it|
w: 2.~Wait not for|men to laud,|heed not their|slight;|Win- ning the|
w: 3.~Night soon comes|on a- pace,|day hast- ens|by;|Work- man and|
 [DG]2 [DF]2 [DB]4 | A4 [=EB]2 [EG]2 | [Ec]8 | [DF]4 [^C=E]2 [=C_E]2 | [B,D]2 [DF]2 [DB]4 | %10
w: great or small,|that is His|test.|Do then the|best you can,|
w: smile of God|brings its de-|light!|Aid- ing the|good and true|
w: work must face|test- ing on|high.|Oh, may we|in that day|
 [Fd]4 [Fc]2 [FB]2 | [EG]8 | [EB]4 [FA]2 [EG]2 x | [DF]2 [^C=E]2 [DF]2 [FB]2 | [=EB]4 [_Ec]4 | %15
w: not for re-|ward,|Not for the|praise of men, but|for the|
w: ne’er goes un-|blest,|All that we|think or do, be|it the|
w: find rest, sweet|rest,|Which God has|prom- ised those who|do their|
 [DB]8 ||"^Refrain" [Ec]4 [D=B]4 | [Ed]2 [Ec]2 [EA]2 [CF]2 | [B,B]4 G4 | [DF]8 | [Ec]4 [D=B]4 | %21
w: Lord.||||||
w: best.|Ev- ery|work for Je- sus|will be|blest,|But He|
w: best.||||||
 [Ed]2 [Ec]2 [EA]2 [EF]2 | [DB]4 [Gc]4 | [^Fd]8 | [DF]4 [^C=E]2 [=C_E]2 | [B,D]2 [DF]2 [DB]4 | %26
w: |||||
w: asks from ev- ery-|one his|best.|Our tal- ents|may be few,|
w: |||||
 [Fd]4 [Fc]2 [FB]2 | [EG]8 | [EB]4 [FA]2 [EG]2 | [DF]2 [^C=E]2 [DF]2 [FB]2 | [=EB]4 [_Ec]4 | %31
w: |||||
w: these may be|small,|But un- to|Him is due our|best, our|
w: |||||
 [DB]8 |] %32
w: |
w: all.|
w: |
V:2
 x8 | x8 | x9 | x8 | x8 | x8 | (C2 F2) x4 | x8 | x8 | x8 | x8 | x8 | x9 | x8 | x8 | x8 || x8 | x8 | %18
 x4 (B,2 C2) | x8 | x8 | x8 | x8 | x8 | x8 | x8 | x8 | x8 | x8 | x8 | x8 | x8 |] %32
V:3
 (B,2 F,2) [B,,G,]2 [B,,A,]2 | [B,,B,]2 [B,,B,]2 [B,,F,]4 | [E,G,]4 z (G,A,) x2 | [B,,B,]8 | %4
 [F,A,]4 [F,C]2 [F,A,]2 | [B,,B,]2 [B,,B,]2 [B,,F,]4 | (F,2 A,2) [C,G,]2 [C,C]2 | (A,4 F,4) | %8
 [B,,F,]4 [B,,G,]2 [B,,A,]2 | [B,,B,]2 [B,,B,]2 [B,,F,]4 | [B,,B,]4 [C,A,]2 [D,B,]2 | [E,B,]8 | %12
 [E,G,]4 z (G,A,) x2 | [B,,B,]2 [B,,G,]2 [B,,F,]2 [D,F,]2 | [C,G,]4 [F,,A,]4 | [B,,B,]8 || %16
 [F,A,]4 [F,^G,]4 | [F,A,]2 [F,A,]2 [F,C]2 [E,A,]2 | [D,F,]4 (G,2 A,2) | [B,,B,]8 | %20
 [F,A,]4 [F,^G,]4 | [F,A,]2 [F,A,]2 [F,C]2 [F,A,]2 | [G,B,]4 (B,2 G,2) | [D,A,]8 | %24
 (B,2 F,2) [B,,G,]2 [B,,A,]2 | [B,,B,]2 [B,,B,]2 [B,,F,]4 | [B,,B,]4 [C,A,]2 [D,B,]2 | [E,B,]8 | %28
 [E,G,]4 (E,F,) (G,A,) | [B,,B,]2 [B,,G,]2 [B,,F,]2 [D,F,]2 | [C,G,]4 [F,,F,A,]4 | [B,,F,B,]8 |] %32
V:4
 B,,4 x4 | x8 | x4 E,2 F, E,2 | x8 | x8 | x8 | C,4 x4 | F,,8 | x8 | x8 | x8 | x8 | %12
 x4 (E,2 F,) E,2 | x8 | x8 | x8 || x8 | x8 | x4 E,4 | x8 | x8 | x8 | x4 E,4 | x8 | B,,4 x4 | x8 | %26
 x8 | x8 | x4 E,2 E,2 | x8 | x8 | x8 |] %32

